X:102
T:Leave Her, Johnny, Leave Her
M:C|
L:1/8
Q:1/4=3D120
K:F
F2G2|\
A2A2(AG)FG |(AB)(AG) F4    |G2G2 G2F2|(AB)c4 c2|
d2d2 c2(cB)| A2 (AG) F2 cB |A3 A A3 G| G2 F6   ||
G2G2 G2 F2 |(AB) c4    (fe)|d3 d d3 d| cB A4 fe|
d2d2 c2 BA |(Bc)(dB)(AG)FG |A3 A A3 G| G2 F2   ||
